X:1
T:Title
%%score { 1 | 2 }
L:1/8
M:4/4
K:Eb
V:1 treble nm="Grand Piano"
V:2 bass 
V:1
 z4 z2[Q:1/4=106] G2 | F2 E2 [DF]2 G2 | A3 G G4- | G2 G2 B4- | B2 B2 A3 [EG] |[M:3/4] [EG]6 | %6
[M:1/4] B2 |[M:4/4] A2 G2 F2 E2 | [CEA]2 [B,DG]2 [G,CE]4- | %9
 [G,CE]2 [A,CF]2[K:bass] [F,B,D]2 [E,B,E]2 | [A,CE]2 D4 E2 |[M:3/4][K:treble] E6 |[M:1/4] G2 | %13
[M:4/4] G2 [FB]2 [FB]2 [Ee]2 | [Ge]3 [Gd] [Gd]4- | [Gd]2 [Fd]2 c2 B2 | =A3 B B4- | B2 B2 f4- | %18
 f2 d2 e2 c2 | d2 B2 c4- | c2 B2 A2 G2 | F6 [DG]2 |[M:9/8] [EG]8- [EG] |] %23
V:2
 z4 z2 [E,B,E]2 | [F,A,C]2 [C,G,C]2 [B,,B,]2 [E,B,E]2 | [F,A,C]3 [E,B,E] [E,B,E]4- | %3
 [E,B,E]2 [E,B,E]2 [G,B,D]4- | [G,B,D]2 [G,B,D]2 [F,CF]3 [C,C] |[M:3/4] [C,C]6 | %6
[M:1/4][K:treble] [G,DG]2 |[M:4/4] [A,CE]2[K:bass] [E,B,E]2 [F,A,C]2 [C,G,C]2 | A,,2 B,,2 C,4- | %9
 C,2 A,,2 B,,2 G,,2 | A,,2 [B,,F,B,]4 [E,G,B,]2 |[M:3/4] [E,G,B,]6 |[M:1/4] [E,B,E]2 | %13
[M:4/4] [E,B,E]2 [D,F,]2 [D,F,]2 [C,G,]2 | [C,C]3 [G,B,] [G,B,]4- | %15
 [G,B,]2 [D,B,]2 [E,G,E]2[K:treble] [G,B,D]2 | [F,CF]3 [B,DF] [B,DF]4- | %17
 [B,DF]2 [B,DF]2 [=A,CF]4- | [A,CF]2 [B,DF]2[K:bass] [G,B,E]2 [_A,CE]2 | %19
 [F,A,D]2 [G,B,D]2 [E,G,E]4- | [E,G,E]2[K:treble] [G,DG]2 [A,CE]2[K:bass] [E,B,E]2 | %21
 [F,A,C]6 [B,,B,]2 |[M:9/8] [E,B,]8- [E,B,] |] %23

